48x48/apps/Diablo.svg

<svg xmlns="http://www.w3.org/2000/svg" width="48" height="48" version="1.1">
 <rect style="fill:#4f4f4f" width="22" height="30" x="15" y="6"/>
 <path style="opacity:0.2;fill-rule:evenodd" d="M 6.6660156,4.0000681 C 5.5996934,3.9999042 6.0475546,4.3007864 6.7226562,4.7695993 7.6921325,5.4465318 8.7829626,6.464622 9.9589844,7.3828806 10.856095,8.2221617 11,8.6328456 11,9.9688181 V 25.363349 c 0,4.099851 0.478742,7.074339 -0.898438,10.179688 -1.5199281,3.427229 -5.2908662,4.892312 -7.5117182,7.93164 -2.11462456,2.615085 2.0189318,1.368799 3.640625,0.548829 C 9.7061447,42.266113 13.033641,40.581494 17.197266,40.127021 22.4466,40.023276 26.596764,40.107068 31.367188,40.000068 40.000811,40.000068 44,32.000687 44,21.144599 44,12.000687 39.999157,4.0007621 30.554688,4.04499 22.477887,4.0076064 10.3974,4.0009634 6.6660156,4.0000681 Z m 12.9882814,5 c 3.007777,0.00605 9.173344,0.095089 10.382812,0.7070312 C 35.319844,12.800729 36.1112,16.510435 36,21.796943 c 0.146512,4.7835 -1.544285,9.940669 -5.962891,12.386719 C 28.424485,34.999584 18,35.000068 18,35.000068 V 9.0059275 c 0,0 0.651707,-0.0078 1.654297,-0.00586 z"/>
 <path style="fill:#ec4040;fill-rule:evenodd" d="M 6.6660156,3 C 5.5996934,2.9998361 6.0475546,3.3007183 6.7226562,3.7695312 7.6921325,4.4464637 8.7829626,5.4645539 9.9589844,6.3828125 10.856095,7.2220936 11,7.6327775 11,8.96875 v 15.394531 c 0,4.099851 0.478742,7.074339 -0.898438,10.179688 -1.5199281,3.427229 -5.2908662,4.892312 -7.5117182,7.93164 -2.11462456,2.615085 2.0189318,1.368799 3.640625,0.548829 C 9.7061447,41.266045 13.033641,39.581426 17.197266,39.126953 22.4466,39.023208 26.596764,39.107 31.367188,39 40.000811,39 44,31.000619 44,20.144531 44,11.000619 39.999157,3.000694 30.554688,3.0449219 22.477887,3.0075383 10.3974,3.0008953 6.6660156,3 Z M 19.654297,8 c 3.007777,0.00605 9.173344,0.095089 10.382812,0.7070312 C 35.319844,11.800661 36.1112,15.510367 36,20.796875 c 0.146512,4.7835 -1.544285,9.940669 -5.962891,12.386719 C 28.424485,33.999516 18,34 18,34 V 8.0058594 c 0,0 0.651707,-0.0078 1.654297,-0.00586 z"/>
 <path style="fill:#f4f4f7;fill-rule:evenodd;opacity:0.2" d="M 6.6660156 3 C 5.5996934 2.9998361 6.0475546 3.3007183 6.7226562 3.7695312 C 6.8217017 3.8386893 6.9277568 3.9241906 7.0292969 4 C 10.951196 4.0010595 22.600712 4.0081068 30.554688 4.0449219 C 39.839722 4.0014406 43.855079 11.7359 43.988281 20.685547 C 43.99057 20.503671 44 20.328065 44 20.144531 C 44 11.000619 39.999156 3.000694 30.554688 3.0449219 C 22.477887 3.0075383 10.3974 3.0008953 6.6660156 3 z M 35.996094 20.978516 C 36.094971 25.710633 34.400121 30.76832 30.037109 33.183594 C 28.424485 33.999516 18 34 18 34 L 18 35 C 18 35 28.424485 34.999516 30.037109 34.183594 C 34.455715 31.737544 36.146512 26.580375 36 21.796875 C 36.005955 21.513765 35.995867 21.252729 35.996094 20.978516 z M 11.060547 29.904297 C 11.003397 31.518169 10.779056 33.015316 10.101562 34.542969 C 8.5816344 37.970198 4.8106958 39.435281 2.5898438 42.474609 C 1.8831755 43.348522 1.8821787 43.785554 2.2441406 43.957031 C 2.3333718 43.812138 2.4441822 43.654744 2.5898438 43.474609 C 4.8106958 40.435281 8.5816344 38.970198 10.101562 35.542969 C 10.913172 33.712903 11.060232 31.900584 11.060547 29.904297 z"/>
</svg>

<svg xmlns="http://www.w3.org/2000/svg" width="48" height="48"><path style="fill:#4f4f4f" d="M15 6h22v30H15z"/><path style="opacity:.2;fill-rule:evenodd" d="M6.666 4c-1.066 0-.618.3.057.77.97.677 2.06 1.695 3.236 2.613.897.84 1.041 1.25 1.041 2.586v15.394c0 4.1.479 7.075-.898 10.18-1.52 3.427-5.291 4.892-7.512 7.932-2.115 2.615 2.019 1.368 3.64.549 3.476-1.758 6.804-3.443 10.967-3.897 5.25-.104 9.4-.02 14.17-.127C40.001 40 44 32 44 21.145 44 12 40 4 30.555 4.045 22.478 4.008 10.397 4.001 6.666 4zm12.988 5c3.008.006 9.174.095 10.383.707 5.283 3.094 6.074 6.803 5.963 12.09.147 4.783-1.544 9.94-5.963 12.387C28.424 35 18 35 18 35V9.006s.652-.008 1.654-.006z"/><path style="fill:#ec4040;fill-rule:evenodd" d="M6.666 3c-1.066 0-.618.3.057.77.97.676 2.06 1.695 3.236 2.613.897.84 1.041 1.25 1.041 2.586v15.394c0 4.1.479 7.075-.898 10.18-1.52 3.427-5.291 4.892-7.512 7.932-2.115 2.615 2.019 1.368 3.64.548 3.476-1.757 6.804-3.442 10.967-3.896 5.25-.104 9.4-.02 14.17-.127C40.001 39 44 31 44 20.145 44 11 40 3 30.555 3.045 22.478 3.008 10.397 3 6.666 3zm12.988 5c3.008.006 9.174.095 10.383.707 5.283 3.094 6.074 6.803 5.963 12.09.147 4.783-1.544 9.94-5.963 12.387C28.424 34 18 34 18 34V8.006s.652-.008 1.654-.006z"/><path style="fill:#f4f4f7;fill-rule:evenodd;opacity:.2" d="M6.666 3c-1.066 0-.618.3.057.77.099.069.205.154.306.23 3.922.001 15.572.008 23.526.045 9.285-.044 13.3 7.69 13.433 16.64.003-.181.012-.357.012-.54C44 11 40 3 30.555 3.045 22.478 3.008 10.397 3 6.666 3zm29.33 17.979c.099 4.732-1.596 9.79-5.959 12.205C28.424 34 18 34 18 34v1s10.424 0 12.037-.816c4.419-2.446 6.11-7.604 5.963-12.387.006-.283-.004-.544-.004-.818zm-24.935 8.925c-.058 1.614-.282 3.111-.96 4.639-1.52 3.427-5.29 4.892-7.511 7.932-.707.874-.708 1.31-.346 1.482.09-.145.2-.302.346-.482 2.22-3.04 5.992-4.505 7.512-7.932.811-1.83.958-3.642.959-5.639z"/></svg>
